source/img/services/services-nav/box-close.svg

<svg width="32" height="32" viewBox="0 0 32 32" fill="none" xmlns="http://www.w3.org/2000/svg">
<path d="M6.20156 11.1729L15.989 15.1314M6.20156 11.1729L11.0953 13.1522L15.989 15.1314M6.20156 11.1729L6 22.3457L15.989 25.64M6.20156 11.1729L10.3875 8.32692L11.5622 8.77266M15.989 7L25.814 11.1936M15.989 7L20.549 8.94635L25.814 11.1936M15.989 7L11.9875 7.80015L13.1015 8.1851M25.814 11.1936L15.989 15.1314M25.814 11.1936L21.446 11.5281L18.1851 10.2719M25.814 11.1936L25.91 22.3457L15.989 25.64M15.989 15.1314L19.4409 11.8725L16.8079 10.819M15.989 15.1314V25.64M15.3496 10.2719L16.8079 9.70465M15.3496 10.2719L16.8079 10.819M15.3496 10.2719L11.5622 8.77266M16.8079 9.70465L18.1851 10.2719M16.8079 9.70465L13.1015 8.1851M16.8079 10.819L18.1851 10.2719M11.5622 8.77266C12.0259 8.57514 12.6459 8.3796 13.1015 8.1851" stroke="#0A3D76" stroke-width="0.7" stroke-linejoin="round"/>
</svg>

<svg width="32" height="32" fill="none" xmlns="http://www.w3.org/2000/svg"><path d="M6.202 11.173l9.787 3.958m-9.787-3.958l4.893 1.98 4.894 1.978m-9.787-3.958L6 22.346l9.989 3.294M6.202 11.173l4.185-2.846 1.175.446M15.99 7l9.825 4.194M15.989 7l4.56 1.946 5.265 2.248M15.989 7l-4.002.8 1.114.385m12.713 3.009l-9.825 3.937m9.825-3.937l-4.368.334-3.26-1.256m7.628.922l.096 11.152-9.921 3.294m0-10.509l3.452-3.258-2.633-1.054m-.819 4.312V25.64m-.64-15.368l1.459-.567m-1.458.567l1.458.547m-1.458-.547l-3.788-1.5m5.246.933l1.377.567m-1.377-.567L13.1 8.185m3.707 2.634l1.377-.547m-6.623-1.5c.464-.197 1.084-.392 1.54-.587" stroke="#0A3D76" stroke-width=".7" stroke-linejoin="round"/></svg>
